assets/svg/solid/tower-observation.svg

<svg xmlns="http://www.w3.org/2000/svg" viewBox="0 0 512 512"><!--! Font Awesome Free 6.1.2 by @fontawesome - https://fontawesome.com License - https://fontawesome.com/license/free (Icons: CC BY 4.0, Fonts: SIL OFL 1.1, Code: MIT License) Copyright 2022 Fonticons, Inc. --><path d="M241.7 3.378C250.7-1.126 261.3-1.126 270.3 3.378L430.3 83.38C446.1 91.28 452.5 110.5 444.6 126.3C439 137.5 427.7 143.1 416 144V224C416 241.7 401.7 256 384 256H379.1L411.1 448H480C497.7 448 512 462.3 512 480C512 497.7 497.7 512 480 512H384.5C384.2 512 383.8 512 383.4 512H128.6C128.2 512 127.9 512 127.5 512H32C14.33 512 0 497.7 0 480C0 462.3 14.33 448 32 448H100.9L132.9 256H128C110.3 256 96 241.7 96 224V144C84.27 143.1 72.98 137.5 67.38 126.3C59.47 110.5 65.88 91.28 81.69 83.38L241.7 3.378zM314.5 448L256 399.2L197.5 448H314.5zM193.1 284.3L256 336.8L318.9 284.3L314.2 256H197.8L193.1 284.3zM183.9 339.2L172.8 406.1L218.5 368L183.9 339.2zM293.5 368L339.2 406.1L328.1 339.2L293.5 368zM176 128C167.2 128 160 135.2 160 144C160 152.8 167.2 160 176 160H336C344.8 160 352 152.8 352 144C352 135.2 344.8 128 336 128H176z"/></svg>

<svg xmlns="http://www.w3.org/2000/svg" viewBox="0 0 512 512"><!--! Font Awesome Free 6.5.0 by @fontawesome - https://fontawesome.com License - https://fontawesome.com/license/free (Icons: CC BY 4.0, Fonts: SIL OFL 1.1, Code: MIT License) Copyright 2023 Fonticons, Inc. --><path d="M241.7 3.4c9-4.5 19.6-4.5 28.6 0l160 80c15.8 7.9 22.2 27.1 14.3 42.9C439 137.5 427.7 144 416 144v80c0 17.7-14.3 32-32 32h-4.9l32 192H480c17.7 0 32 14.3 32 32s-14.3 32-32 32H384.5c-.4 0-.8 0-1.1 0H128.6c-.4 0-.8 0-1.1 0H32c-17.7 0-32-14.3-32-32s14.3-32 32-32h68.9l32-192H128c-17.7 0-32-14.3-32-32V144c-11.7 0-23-6.5-28.6-17.7c-7.9-15.8-1.5-35 14.3-42.9l160-80zM314.5 448L256 399.2 197.5 448h117zM197.8 256l-4.7 28.3L256 336.8l62.9-52.5L314.2 256H197.8zm-13.9 83.2l-11.2 67L218.5 368l-34.6-28.8zM293.5 368l45.8 38.1-11.2-67L293.5 368zM176 128c-8.8 0-16 7.2-16 16s7.2 16 16 16H336c8.8 0 16-7.2 16-16s-7.2-16-16-16H176z"/></svg>
